X: 665
T: Laicheng bainian
%%abc-version 2.0
%%abcx-abcm2ps-target-version 5.9.1 (29 Sep 2008)
%%abc-creator hum2abc beta
%%abcx-conversion-date 2013/10/02 07:52:30
%%abc-edited-by Helmut Schaffrath
%%humdrum-veritas 3236872026
%%humdrum-veritas-data 3395313774
%%continueall 1
%%barnumbers 0
L: 1/8
M: 2/4
K: A
E2e2 [I:setbarnb 1]| 
c B A F | 
c B A F | 
E CE2 | 
E2e2 | 
c B A F | 
c B A F | 
E CE2 | 
A B/ c< A B/ | 
F CE2 | 
A> c B c | 
F EC2 | 
e> c e3/ c/ | 
B2B c | 
A B/ c/ f e | 
c B A F | 
E G F E | 
E c B c | 
E4 |]  



